X: 4264
T: The FERRY
%R: jig
B: James Kerr "Merry Melodies" v.4 p.28 #264
Z: 2016 John Chambers <jc:trillian.mit.edu>
M: 6/8
L: 1/8
K: A
|:\
cBc Ace | f3 efg | a2c cBA | cBB Bed |\
cBc Ace | f3 efg | a2c BAB | A3- A(ed) :|
|:\
cea aga | fdf agf | e2c cBA | cBB Bed |\
cBc Ace | f3 efg | a2c BAB | A3- A(ed) :|

%%sep 1 1 500
%%sep 1 1 500

